src/assets/icons/icon_camera_white.svg

<svg width="16" height="16" viewBox="0 0 16 16" fill="none" xmlns="http://www.w3.org/2000/svg">
<path fill-rule="evenodd" clip-rule="evenodd" d="M8 6.16666C6.61929 6.16666 5.5 7.28594 5.5 8.66666C5.5 10.0474 6.61929 11.1667 8 11.1667C9.38071 11.1667 10.5 10.0474 10.5 8.66666C10.5 7.28594 9.38071 6.16666 8 6.16666ZM6.5 8.66666C6.5 7.83823 7.17157 7.16666 8 7.16666C8.82843 7.16666 9.5 7.83823 9.5 8.66666C9.5 9.49508 8.82843 10.1667 8 10.1667C7.17157 10.1667 6.5 9.49508 6.5 8.66666Z" fill="#ffffff"/>
<path fill-rule="evenodd" clip-rule="evenodd" d="M2.03697 4.70363C2.38079 4.35981 2.8471 4.16666 3.33333 4.16666H4C4.22101 4.16666 4.43298 4.07886 4.58926 3.92258C4.74554 3.7663 4.83333 3.55434 4.83333 3.33332C4.83333 3.0239 4.95625 2.72716 5.17504 2.50837C5.39383 2.28957 5.69058 2.16666 6 2.16666H10C10.3094 2.16666 10.6062 2.28957 10.825 2.50837C11.0437 2.72716 11.1667 3.0239 11.1667 3.33332C11.1667 3.55434 11.2545 3.7663 11.4107 3.92258C11.567 4.07886 11.779 4.16666 12 4.16666H12.6667C13.1529 4.16666 13.6192 4.35981 13.963 4.70363C14.3068 5.04744 14.5 5.51376 14.5 5.99999V12C14.5 12.4862 14.3068 12.9525 13.963 13.2964C13.6192 13.6402 13.1529 13.8333 12.6667 13.8333H3.33333C2.8471 13.8333 2.38079 13.6402 2.03697 13.2964C1.69315 12.9525 1.5 12.4862 1.5 12V5.99999C1.5 5.51376 1.69315 5.04744 2.03697 4.70363ZM5.88215 3.21547C5.91341 3.18422 5.9558 3.16666 6 3.16666H10C10.0442 3.16666 10.0866 3.18422 10.1179 3.21547C10.1491 3.24673 10.1667 3.28912 10.1667 3.33332C10.1667 3.81955 10.3598 4.28587 10.7036 4.62969C11.0475 4.9735 11.5138 5.16666 12 5.16666H12.6667C12.8877 5.16666 13.0996 5.25445 13.2559 5.41073C13.4122 5.56701 13.5 5.77898 13.5 5.99999V12C13.5 12.221 13.4122 12.433 13.2559 12.5892C13.0996 12.7455 12.8877 12.8333 12.6667 12.8333H3.33333C3.11232 12.8333 2.90036 12.7455 2.74408 12.5892C2.5878 12.433 2.5 12.221 2.5 12V5.99999C2.5 5.77898 2.5878 5.56701 2.74408 5.41073C2.90036 5.25445 3.11232 5.16666 3.33333 5.16666H4C4.48623 5.16666 4.95255 4.9735 5.29636 4.62969C5.64018 4.28587 5.83333 3.81955 5.83333 3.33332C5.83333 3.28912 5.85089 3.24673 5.88215 3.21547Z" fill="#ffffff"/>
</svg>

<svg xmlns="http://www.w3.org/2000/svg" width="16" height="16" fill="none" viewBox="0 0 16 16">
    <path fill="#fff" fill-rule="evenodd" d="M8 6.167c-1.38 0-2.5 1.119-2.5 2.5 0 1.38 1.12 2.5 2.5 2.5s2.5-1.12 2.5-2.5c0-1.381-1.12-2.5-2.5-2.5zm-1.5 2.5c0-.829.672-1.5 1.5-1.5s1.5.671 1.5 1.5c0 .828-.672 1.5-1.5 1.5s-1.5-.672-1.5-1.5z" clip-rule="evenodd"/>
    <path fill="#fff" fill-rule="evenodd" d="M2.037 4.704c.344-.344.81-.537 1.296-.537H4c.221 0 .433-.088.59-.244.156-.157.243-.369.243-.59 0-.309.123-.606.342-.825.219-.218.516-.341.825-.341h4c.31 0 .606.123.825.341.219.22.342.516.342.825 0 .221.088.433.244.59.156.156.368.244.589.244h.667c.486 0 .952.193 1.296.537.344.344.537.81.537 1.296v6c0 .486-.193.953-.537 1.296-.344.344-.81.537-1.296.537H3.333c-.486 0-.952-.193-1.296-.537-.344-.343-.537-.81-.537-1.296V6c0-.486.193-.952.537-1.296zm3.845-1.488c.031-.032.074-.05.118-.05h4c.044 0 .087.018.118.05.031.03.049.073.049.117 0 .487.193.953.537 1.297.343.344.81.537 1.296.537h.667c.22 0 .433.088.589.244.156.156.244.368.244.59v6c0 .22-.088.432-.244.588-.156.157-.368.244-.59.244H3.334c-.22 0-.433-.087-.589-.244-.156-.156-.244-.368-.244-.589V6c0-.22.088-.433.244-.59.156-.155.368-.243.59-.243H4c.486 0 .953-.193 1.296-.537.344-.344.537-.81.537-1.297 0-.044.018-.086.05-.117z" clip-rule="evenodd"/>
</svg>
